(/Users/shlokyeolekar/Documents/Redbud Labs/Heating Press Project/fixed_gcode.nc Post Processed G-code)
(Program has been seperated by tool changes)
(Move to safe Z to avoid workholding)
G90 
G21 
G53G0Z-5.000 
M6T651
M03S10000
G0X95.219Y63.671
(PREPOSITION BEFORE RAPID PLUNGE)
Z0.250
G1Z-0.120F100.0
Y65.573F2000.0
X97.173
Y63.671
X95.219
Z12.700
G0X95.260Y61.110
Z0.250
G1Z-0.120F100.0
Y63.013F2000.0
X97.214
Y61.110
X95.260
Z12.700
G0X98.097Y61.893
Z0.250
G1Z-0.120F100.0
X100.051F2000.0
Y61.604
X101.583Y61.605
X106.083Y66.077
X106.369Y66.167
X108.181Y66.169
X108.206Y66.804
X109.714Y66.797
X116.533Y73.615
Y93.409
X111.190Y98.752
X86.951
X86.053Y97.854
X86.050Y96.785
X85.988Y96.568
X85.854Y96.385
X85.829Y95.579
X85.754Y95.397
X85.634Y95.242
X85.478Y95.122
X85.296Y95.046
X84.926Y95.041
X84.597Y95.213
X84.392Y95.514
X84.346Y95.895
X79.014
X77.918Y94.799
X77.737Y94.679
X77.480Y94.625
X77.136Y94.626
Y94.245
X75.182
Y96.147
X77.136
Y95.895
X77.217
X78.330Y97.006
X78.479Y97.104
X78.650Y97.156
X84.346Y97.164
X84.353Y97.391
X84.406Y97.580
X84.559Y97.809
X84.783Y97.968
X84.802Y98.273
X84.921Y98.512
X86.266Y99.862
X86.427Y99.966
X86.613Y100.018
X111.480Y100.021
X111.709Y99.968
X111.902Y99.836
X117.700Y94.019
X117.777Y93.853
X117.803Y93.672
Y73.352
X117.723Y73.044
X110.223Y65.524
X110.000Y65.429
X109.714Y65.414
Y65.295
X109.105
X108.810Y65.013
X108.554Y64.908
X106.673Y64.899
X102.295Y60.520
X102.113Y60.393
X101.846Y60.335
X100.051Y60.337
Y59.991
X98.097
Y61.893
Z12.700
G0X98.084Y62.553
Z0.250
G1Z-0.120F100.0
Y64.455F2000.0
X100.038
Y62.553
X98.084
Z12.700
G0X98.105Y65.093
Z0.250
G1Z-0.120F100.0
Y66.995F2000.0
X100.059
Y65.093
X98.105
Z12.700
G0Y67.633
Z0.250
G1Z-0.120F100.0
Y69.535F2000.0
X100.059
Y67.633
X98.105
Z12.700
G0X98.084Y70.153
Z0.250
G1Z-0.120F100.0
Y72.055F2000.0
X100.038
Y70.153
X98.084
Z12.700
G0X95.239Y71.609
Z0.250
G1Z-0.120F100.0
Y73.511F2000.0
X97.193
Y71.609
X95.239
Z12.700
G0X95.260Y74.155
Z0.250
G1Z-0.120F100.0
Y76.057F2000.0
X97.214
Y74.155
X95.260
Z12.700
G0X82.882Y72.697
Z0.250
G1Z-0.120F100.0
X82.834Y72.936F2000.0
X82.381Y73.318
X76.632Y79.384
X76.096Y79.395
X75.798Y79.537
X71.908Y83.428
X71.802Y83.616
X71.765Y83.830
X71.774Y87.740
X71.835Y87.929
X71.951Y88.089
X73.241Y89.377
X73.516Y89.525
X78.881Y89.531
X79.053Y89.468
X79.200Y89.359
X84.094Y84.465
X87.323
Y95.091
X87.047Y95.309
X86.900Y95.630
X86.886Y97.321
X86.967Y97.625
X87.165Y97.870
X87.445Y98.013
X87.761Y98.029
X88.095Y97.886
X88.324Y97.604
X88.393Y97.340
X88.394Y96.674
X88.533Y96.482
X88.592Y96.254
X88.593Y83.817
X88.520Y83.535
X88.330Y83.315
X88.153Y83.225
X87.958Y83.195
X83.815
X83.545Y83.262
X83.381Y83.380
X78.487Y88.275
X73.934
X73.035Y87.376
Y84.093
X76.474Y80.655
X77.012Y80.644
X77.314Y80.497
X82.930Y74.368
Y74.583
X83.667Y74.603
X84.838
Y72.700
X82.882Y72.697
Z12.700
G0X82.851Y70.176
Z0.250
G1Z-0.120F100.0
Y72.078F2000.0
X84.805
Y70.176
X82.851
Z12.700
G0X82.841Y69.511
Z0.250
G1Z-0.120F100.0
X84.488F2000.0
X85.418Y70.440
X85.419Y72.435
X85.457Y72.618
X85.547Y72.783
X93.355Y80.600
X93.334Y86.701
X93.024
Y88.603
X94.978
Y86.701
X94.647
X94.625Y80.337
X94.555Y80.046
X94.440Y79.888
X86.688Y72.136
X86.687Y70.135
X86.639Y69.933
X86.531Y69.758
X84.812Y68.058
X84.795Y68.052
Y67.609
X82.841
Y69.511
Z12.700
G0X82.857Y77.165
Z0.250
G1Z-0.120F100.0
X84.522F2000.0
X90.498Y83.140
Y88.011
X89.689Y88.825
X89.592Y88.988
X89.548Y89.173
X89.545Y95.369
X89.462Y95.544
X89.426Y95.738
Y97.321
X89.486Y97.579
X89.636Y97.807
X89.858Y97.966
X90.122Y98.036
X90.394Y98.008
X90.604Y97.908
X90.774Y97.750
X90.887Y97.548
X90.934Y97.321
Y95.738
X90.899Y95.544
X90.815Y95.369
Y89.490
X91.624Y88.677
X91.721Y88.514
X91.766Y88.330
X91.768Y82.877
X91.742Y82.697
X91.582Y82.428
X84.888Y75.736
X84.811Y75.685
Y75.262
X82.857
Y77.165
Z12.700
G0X82.854Y77.722
Z0.250
G1Z-0.120F100.0
Y79.624F2000.0
X84.808
Y77.722
X82.854
Z12.700
G0X82.891Y80.661
Z0.250
G1Z-0.120F100.0
X80.013Y80.655F2000.0
X79.774Y80.704
X79.571Y80.840
X74.966Y85.415
X73.963
Y87.318
X75.917
Y86.322
X80.284Y81.925
X82.891Y81.921
Y82.224
X84.845
Y80.322
X82.891
Y80.661
Z12.700
G0X67.640Y83.098
Z0.250
G1Z-0.120F100.0
X67.955F2000.0
X67.956Y87.973
X68.028Y88.251
X68.141Y88.406
X72.586Y92.851
X72.835Y93.005
X73.035Y93.037
X81.608
X81.792Y93.010
X82.057Y92.851
X85.561Y89.347
X85.703Y89.110
X85.735Y88.910
X85.750Y87.284
X86.085
Y85.382
X84.131
Y87.284
X84.452
X84.465Y88.646
X81.345Y91.767
X73.299
X69.225Y87.694
Y83.098
X69.540
Y81.198
X67.640
Y83.098
Z12.700
G0X55.779Y75.979
Z0.250
G1Z-0.120F100.0
X55.534Y76.060F2000.0
X55.331Y76.219
X55.192Y76.437
X55.136Y76.689
Y78.271
X55.171Y78.465
X55.255Y78.641
X55.271Y89.760
X55.412Y90.039
X56.776Y91.404
X56.514Y91.756
X56.429Y92.188
X56.538Y92.614
X56.819Y92.953
X57.076Y93.096
X57.365Y93.159
X59.650Y93.137
X59.888Y93.050
X60.099Y92.905
X60.264Y92.713
X60.377Y92.484
X60.428Y92.234
X60.415Y91.980
X60.337Y91.737
X60.202Y91.522
X59.941Y91.299
X59.620Y91.177
X58.328Y91.160
X56.525Y89.357
Y78.641
X56.644Y78.280
Y76.689
X56.564Y76.387
X56.369Y76.142
X56.091Y75.998
X55.779Y75.979
Z12.700
G0X58.119Y56.988
Z0.250
G1Z-0.120F100.0
X57.894Y57.145F2000.0
X57.740Y57.371
X57.676Y57.638
Y59.221
X57.712Y59.415
X57.795Y59.590
Y66.159
X57.712Y66.334
X57.676Y66.528
Y68.111
X57.712Y68.305
X57.795Y68.480
Y70.812
X56.775Y70.816
X56.596Y70.862
X56.438Y70.958
X51.938Y75.454
X51.829Y75.611
X51.771Y75.792
X51.763Y97.800
X51.841Y98.105
X54.818Y101.117
X54.984Y101.231
X55.179Y101.287
X75.893Y101.292
X76.062Y101.262
X77.204
Y99.360
X75.250
Y100.022
X55.519
X53.033Y97.536
Y76.155
X57.106Y72.082
X57.795
Y76.319
X57.712Y76.493
X57.677Y76.686
X57.688Y78.371
X57.757Y78.575
X57.882Y78.752
X58.051Y78.886
X58.251Y78.967
X58.465Y78.988
X58.677Y78.947
X58.868Y78.849
X59.024Y78.700
X59.137Y78.498
X59.184Y78.271
Y76.688
X59.149Y76.494
X59.065Y76.319
X59.078Y68.462
X59.184Y68.111
Y66.528
X59.149Y66.334
X59.065Y66.159
Y59.590
X59.184Y59.229
Y57.638
X59.112Y57.351
X58.934Y57.113
X58.679Y56.963
X58.385Y56.922
X58.119Y56.988
Z12.700
G0X58.184Y52.764
Z0.250
G1Z-0.120F100.0
X57.981Y52.900F2000.0
X55.430Y55.453
X55.269Y55.759
X55.255Y57.269
X55.172Y57.444
X55.136Y57.638
Y59.221
X55.172Y59.415
X55.255Y59.590
Y66.159
X55.172Y66.334
X55.136Y66.528
X55.160Y68.262
X55.268Y68.501
X55.450Y68.687
X55.685Y68.800
X55.943Y68.827
X56.196Y68.764
X56.412Y68.619
X56.567Y68.409
X56.641Y68.158
X56.644Y66.528
X56.609Y66.334
X56.525Y66.159
Y59.590
X56.644Y59.229
Y57.638
X56.609Y57.444
X56.525Y57.269
Y56.153
X58.694Y53.985
X61.977
X64.145Y56.153
Y60.706
X61.463Y63.389
X61.309Y63.666
X61.295Y71.539
X61.356Y71.732
X61.474Y71.896
X65.415Y75.838
X65.419Y81.199
X65.073
Y83.099
X66.972
Y81.199
X66.684
X66.685Y75.575
X66.656Y75.384
X66.500Y75.125
X62.558Y71.184
Y64.090
X65.241Y61.407
X65.382Y61.174
X65.415Y60.970
X65.395Y55.730
X65.230Y55.440
X62.690Y52.900
X62.492Y52.767
X62.240Y52.715
X58.423
X58.184Y52.764
Z12.700
G0X71.438Y53.008
Z0.250
G1Z-0.120F100.0
X71.767F2000.0
X71.769Y53.092
X71.890Y53.410
X79.281Y60.811
X72.192Y67.901
X71.923Y67.836
X70.339
X70.081Y67.895
X69.858Y68.041
X69.727Y68.205
X69.647Y68.397
X69.622Y68.604
X69.655Y68.811
X69.744Y69.001
X69.880Y69.158
X70.054Y69.272
X70.254Y69.334
X71.923Y69.344
X72.116Y69.308
X72.292Y69.225
X72.578Y69.199
X72.788Y69.093
X80.179Y61.709
X82.429Y63.959
X82.620Y64.090
X82.861Y64.140
Y64.446
X84.815
Y62.544
X82.861
Y62.595
X73.275Y53.008
X73.391
Y51.105
X71.438
Y53.008
Z12.700
G0X71.379Y49.221
Z0.250
G1Z-0.120F100.0
X71.180Y49.356F2000.0
X70.216Y50.320
X70.062Y50.597
X69.746Y51.124
X68.887
Y53.027
X69.215
X69.231Y54.389
X69.292Y54.584
X69.411Y54.751
X72.718Y58.058
Y61.341
X72.455Y61.605
X72.126Y61.600
Y61.262
X70.171
Y63.164
X70.482
X70.496Y64.516
X67.824Y67.188
X67.711Y67.341
X67.638Y67.637
Y69.559
X67.696Y69.808
X67.824Y69.991
X69.411Y71.579
X69.670Y71.735
X69.970Y71.765
X70.331Y71.883
X71.995Y71.876
X72.198Y71.817
X72.374Y71.704
X72.514Y71.547
X72.604Y71.357
X72.639Y71.102
X72.587Y70.852
X72.453Y70.633
X72.255Y70.472
X71.924Y70.376
X70.339
X70.070Y70.441
X68.908Y69.279
Y67.900
X71.580Y65.229
X71.710Y65.039
X71.765Y64.780
Y63.164
X72.126
Y62.874
X72.757Y62.873
X73.019Y62.799
X73.834Y62.020
X73.933Y61.862
X73.983Y61.683
X73.988Y57.779
X73.931Y57.531
X73.802Y57.345
X70.496Y54.039
Y53.027
X70.841
Y51.763
X71.311Y51.021
X71.891Y50.440
X73.016
X80.973Y57.740
Y59.407
X81.050Y59.685
X81.159Y59.831
X82.845Y61.291
Y61.929
X84.799
Y61.684
X93.355Y61.605
X93.365Y76.322
X93.513Y76.628
X95.578Y78.695
X95.598Y83.986
X95.689Y84.188
X95.844Y84.346
X96.042Y84.441
X96.267Y84.465
X98.435Y86.633
Y89.916
X96.267Y92.085
X92.676Y92.086
X92.402Y92.170
X92.193Y92.366
X92.087Y92.678
X92.085Y95.369
X92.003Y95.542
X91.967Y95.734
X91.974Y97.395
X92.103Y97.718
X92.362Y97.948
X92.697Y98.038
X93.037Y97.969
X93.207Y97.861
X93.342Y97.712
X93.433Y97.533
X93.474Y97.335
Y95.738
X93.439Y95.544
X93.355Y95.369
Y93.355
X96.546Y93.354
X96.810Y93.290
X96.980Y93.169
X99.531Y90.616
X99.648Y90.443
X99.702Y90.241
X99.705Y86.370
X99.669Y86.157
X99.520Y85.920
X96.848Y83.280
Y78.432
X96.821Y78.248
X96.662Y77.983
X94.625Y75.946
Y58.717
X97.148Y56.194
X98.075
Y56.854
X100.029
Y56.523
X101.077Y56.525
X108.206Y63.654
Y64.263
X109.714
Y64.144
X112.460
X119.708Y71.393
Y95.631
X113.412Y101.927
X82.189
X77.918Y97.657
X77.643Y97.503
X77.201Y97.492
Y96.840
X75.247
Y97.164
X64.145
Y96.663
X64.230Y96.303
Y94.216
X64.145Y93.856
Y83.111
X64.492
Y81.209
X62.539
Y83.111
X62.877
X62.875Y93.325
X62.559Y93.517
X62.334Y93.815
X62.238Y94.133
X62.230Y94.625
X61.366Y94.628
X61.062Y94.742
X58.532Y97.260
X57.283Y97.269
X56.999Y97.356
X56.752Y97.524
X56.515Y97.855
X56.430Y98.254
X56.510Y98.653
X56.743Y98.987
X57.038Y99.180
X57.384Y99.259
X59.474Y99.260
X59.706Y99.222
X59.922Y99.131
X60.115Y98.990
X60.269Y98.806
X60.374Y98.593
X60.427Y98.359
X60.422Y98.120
X60.360Y97.888
X60.245Y97.678
X60.085Y97.503
X61.694Y95.895
X62.230
X62.238Y96.390
X62.334Y96.705
X62.559Y97.002
X62.875Y97.194
X62.877Y97.842
X62.934Y98.065
X63.119Y98.299
X63.392Y98.423
X75.247Y98.434
Y98.742
X76.773
X77.217Y98.752
X81.488Y103.022
X81.649Y103.134
X81.837Y103.191
X113.702Y103.196
X113.930Y103.144
X114.125Y103.011
X120.805Y96.330
X120.933Y96.129
X120.978Y95.895
Y71.130
X120.918Y70.860
X120.792Y70.680
X113.122Y63.015
X112.954Y62.918
X112.765Y62.876
X109.714Y62.875
Y62.756
X109.105
X101.790Y55.440
X101.624Y55.321
X101.340Y55.255
X100.029
Y54.952
X98.866
X98.782Y54.926
X96.859Y54.925
X96.556Y55.016
X93.447Y58.126
X93.357Y58.412
X93.355Y60.335
X84.799Y60.362
Y60.027
X83.148
X82.256Y59.096
X82.241Y57.431
X82.196Y57.238
X82.094Y57.068
X73.728Y49.356
X73.543Y49.227
X73.323Y49.171
X71.614Y49.170
X71.379Y49.221
Z12.700
G0X70.171Y59.709
Z0.250
G1Z-0.120F100.0
X69.958Y59.739F2000.0
X69.729Y59.885
X64.638Y64.977
X64.530Y65.131
X64.472Y65.310
X64.463Y70.495
X64.507Y70.728
X64.649Y70.944
X67.824Y74.119
X67.991Y74.238
X68.231Y74.303
X69.970Y74.305
X70.145Y74.388
X70.339Y74.424
X71.923
X72.212Y74.349
X72.424Y74.199
X72.569Y73.987
X72.906Y73.958
X73.168Y73.801
X80.284Y66.685
X82.835Y66.682
Y66.954
X84.789
Y65.052
X82.835
Y65.422
X80.020Y65.414
X79.774Y65.464
X79.571Y65.600
X72.455Y72.717
X71.367Y72.722
X71.162Y72.786
X70.986Y72.916
X70.266Y72.923
X69.970Y73.035
X68.536
X65.733Y70.231
Y65.678
X70.441Y60.970
X70.671Y60.945
X70.873Y60.845
X71.094Y60.635
X72.125
Y58.733
X70.171
Y59.709
Z12.700
G0X82.851Y57.467
Z0.250
G1Z-0.120F100.0
Y59.369F2000.0
X84.805
Y57.467
X82.851
Z12.700
G0X82.873Y54.900
Z0.250
G1Z-0.120F100.0
Y56.802F2000.0
X84.826
Y54.900
X82.873
Z12.700
G0X82.830Y52.397
Z0.250
G1Z-0.120F100.0
Y54.299F2000.0
X84.784
Y52.397
X82.830
Z12.700
G0X84.135Y49.851
Z0.250
G1Z-0.120F100.0
Y51.753F2000.0
X86.089
Y49.851
X84.135
Z12.700
G0X86.681Y49.829
Z0.250
G1Z-0.120F100.0
Y51.731F2000.0
X88.635
Y49.829
X86.681
Z12.700
G0X89.205Y49.851
Z0.250
G1Z-0.120F100.0
Y51.753F2000.0
X91.159
Y49.851
X89.205
Z12.700
G0X91.751Y49.829
Z0.250
G1Z-0.120F100.0
Y51.731F2000.0
X93.705
Y49.829
X91.751
Z12.700
G0X94.297Y49.851
Z0.250
G1Z-0.120F100.0
Y51.753F2000.0
X96.251
Y49.851
X94.297
Z12.700
G0X96.822Y49.872
Z0.250
G1Z-0.120F100.0
Y51.774F2000.0
X98.776
Y49.872
X96.822
Z12.700
G0X98.106Y52.397
Z0.250
G1Z-0.120F100.0
Y54.299F2000.0
X100.060
Y52.397
X98.106
Z12.700
G0X98.064Y57.453
Z0.250
G1Z-0.120F100.0
Y59.355F2000.0
X100.018
Y57.453
X98.064
Z12.700
G0X108.206Y69.344
Z0.250
G1Z-0.120F100.0
X109.714F2000.0
Y67.836
X108.206
Y69.344
Z12.700
G0Y71.884
Z0.250
G1Z-0.120F100.0
X109.714Y71.877F2000.0
X113.358Y75.520
Y92.456
X111.507Y94.307
X109.494
X107.008Y91.821
Y86.989
X106.932Y86.704
X106.822Y86.555
X101.107Y80.840
X100.924Y80.713
X100.709Y80.657
X100.044Y80.661
Y80.325
X98.090
Y82.227
X100.044
Y81.920
X100.395Y81.925
X105.738Y87.268
Y92.107
X105.791Y92.338
X105.924Y92.534
X108.781Y95.391
X108.942Y95.508
X109.230Y95.577
X111.867Y95.570
X112.039Y95.518
X112.189Y95.420
X114.442Y93.169
X114.562Y93.002
X114.622Y92.805
X114.621Y75.160
X114.559Y74.970
X114.442Y74.808
X110.315Y70.680
X110.154Y70.564
X109.964Y70.502
X109.714Y70.495
Y70.376
X108.206
Y71.884
Z12.700
G0X108.200Y72.909
Z0.250
G1Z-0.120F100.0
X98.268F2000.0
Y74.431
X109.696
Y74.424
X109.714
Y72.916
X109.708
Y72.907
X108.200
Y72.909
Z12.700
G0X108.219Y75.444
Z0.250
G1Z-0.120F100.0
X98.287F2000.0
Y76.966
X109.715
Y76.950
X109.727
Y75.442
X108.219
Y75.444
Z12.700
G0X108.206Y77.998
Z0.250
G1Z-0.120F100.0
X98.274F2000.0
Y79.520
X109.702
Y79.504
X109.714
Y77.996
X108.206
Y77.998
Z12.700
G0Y82.044
Z0.250
G1Z-0.120F100.0
X109.714F2000.0
Y80.536
X108.206
Y82.044
Z12.700
G0Y84.584
Z0.250
G1Z-0.120F100.0
X109.714F2000.0
Y83.076
X108.206
Y84.584
Z12.700
G0Y87.124
Z0.250
G1Z-0.120F100.0
X109.714F2000.0
Y85.616
X108.206
Y87.124
Z12.700
G0X103.169Y88.561
Z0.250
G1Z-0.120F100.0
X103.495F2000.0
X103.515Y93.726
X101.347Y95.895
X96.014
X95.957Y95.485
X95.855Y95.310
X95.711Y95.170
X95.534Y95.072
X95.336Y95.024
X95.133Y95.031
X94.938Y95.093
X94.768Y95.203
X94.634Y95.354
X94.545Y95.535
X94.507Y95.732
X94.514Y97.394
X94.603Y97.654
X94.778Y97.864
X94.972Y97.981
X95.193Y98.035
X95.420Y98.021
X95.632Y97.941
X95.809Y97.802
X95.938Y97.617
X96.005Y97.410
X96.014Y97.164
X101.610
X101.821Y97.128
X102.060Y96.979
X104.639Y94.395
X104.748Y94.205
X104.786Y93.990
X104.806Y88.561
X105.123
Y86.659
X103.169
Y88.561
Z12.700
(Toolpath: Pin Holes)
(Pin Holes)
M05
(Move to safe Z to avoid workholding)
G53G0Z-5.000
(TOOL/MILL,0.80, 0.00, 1.59, 0.00)
M02