(/Users/shlokyeolekar/Documents/Redbud Labs/Heating Press Project/fixed_gcode.nc Post Processed G-code)
(Program has been seperated by tool changes)
(Move to safe Z to avoid workholding)
G90 
G21 
G53G0Z-5.000 
M6T122
M03S24000
(PREPOSITION BEFORE RAPID PLUNGE)
G0X104.150Y87.640
Z12.700
Z0.250
G1Z-3.000F2500.0
G0Z12.700
X108.960Y86.370
Z0.250
G1Z-3.000
G0Z12.700
Y83.830
Z0.250
G1Z-3.000
G0Z12.700
Y81.290
Z0.250
G1Z-3.000
G0Z12.700
Y78.750
Z0.250
G1Z-3.000
G0Z12.700
Y76.210
Z0.250
G1Z-3.000
G0Z12.700
Y73.670
Z0.250
G1Z-3.000
G0Z12.700
Y71.130
Z0.250
G1Z-3.000
G0Z12.700
Y68.590
Z0.250
G1Z-3.000
G0Z12.700
Y66.050
Z0.250
G1Z-3.000
G0Z12.700
Y63.510
Z0.250
G1Z-3.000
G0Z12.700
X99.070
Z0.250
G1Z-3.000
G0Z12.700
Y66.050
Z0.250
G1Z-3.000
G0Z12.700
Y68.590
Z0.250
G1Z-3.000
G0Z12.700
Y71.130
Z0.250
G1Z-3.000
G0Z12.700
Y73.670
Z0.250
G1Z-3.000
G0Z12.700
Y76.210
Z0.250
G1Z-3.000
G0Z12.700
Y78.750
Z0.250
G1Z-3.000
G0Z12.700
Y81.290
Z0.250
G1Z-3.000
G0Z12.700
X96.212Y75.099
Z0.250
G1Z-3.000
G0Z12.700
Y72.559
Z0.250
G1Z-3.000
G0Z12.700
Y64.621
Z0.250
G1Z-3.000
G0Z12.700
Y62.081
Z0.250
G1Z-3.000
G0Z12.700
X99.070Y60.970
Z0.250
G1Z-3.000
G0Z12.700
Y58.430
Z0.250
G1Z-3.000
G0Z12.700
Y55.890
Z0.250
G1Z-3.000
G0Z12.700
Y53.350
Z0.250
G1Z-3.000
G0Z12.700
X97.800Y50.810
Z0.250
G1Z-3.000
G0Z12.700
X95.260
Z0.250
G1Z-3.000
G0Z12.700
X92.720
Z0.250
G1Z-3.000
G0Z12.700
X90.180
Z0.250
G1Z-3.000
G0Z12.700
X87.640
Z0.250
G1Z-3.000
G0Z12.700
X85.100
Z0.250
G1Z-3.000
G0Z12.700
X83.830Y53.350
Z0.250
G1Z-3.000
G0Z12.700
Y55.890
Z0.250
G1Z-3.000
G0Z12.700
Y58.430
Z0.250
G1Z-3.000
G0Z12.700
Y60.970
Z0.250
G1Z-3.000
G0Z12.700
Y63.510
Z0.250
G1Z-3.000
G0Z12.700
Y66.050
Z0.250
G1Z-3.000
G0Z12.700
Y68.590
Z0.250
G1Z-3.000
G0Z12.700
Y71.130
Z0.250
G1Z-3.000
G0Z12.700
Y73.670
Z0.250
G1Z-3.000
G0Z12.700
Y76.210
Z0.250
G1Z-3.000
G0Z12.700
Y78.750
Z0.250
G1Z-3.000
G0Z12.700
Y81.290
Z0.250
G1Z-3.000
G0Z12.700
X85.100Y86.370
Z0.250
G1Z-3.000
G0Z12.700
X93.990Y87.640
Z0.250
G1Z-3.000
G0Z12.700
X95.260Y96.530
Z0.250
G1Z-3.000
G0Z12.700
X92.720
Z0.250
G1Z-3.000
G0Z12.700
X90.180
Z0.250
G1Z-3.000
G0Z12.700
X87.640
Z0.250
G1Z-3.000
G0Z12.700
X85.100
Z0.250
G1Z-3.000
G0Z12.700
X76.210Y95.260
Z0.250
G1Z-3.000
G0Z12.700
Y97.800
Z0.250
G1Z-3.000
G0Z12.700
Y100.340
Z0.250
G1Z-3.000
G0Z12.700
X63.230Y95.260
Z0.250
G1Z-3.000
G0Z12.700
X58.430Y98.260
Z0.250
G1Z-3.000
G0Z12.700
Y92.160
Z0.250
G1Z-3.000
G0Z12.700
X63.510Y82.148
Z0.250
G1Z-3.000
G0Z12.700
X66.050
Z0.250
G1Z-3.000
G0Z12.700
X68.590
Z0.250
G1Z-3.000
G0Z12.700
X74.940Y86.370
Z0.250
G1Z-3.000
G0Z12.700
X71.130Y73.670
Z0.250
G1Z-3.000
G0Z12.700
Y71.130
Z0.250
G1Z-3.000
G0Z12.700
Y68.590
Z0.250
G1Z-3.000
G0Z12.700
Y62.240
Z0.250
G1Z-3.000
G0Z12.700
Y59.700
Z0.250
G1Z-3.000
G0Z12.700
X69.860Y52.080
Z0.250
G1Z-3.000
G0Z12.700
X72.400
Z0.250
G1Z-3.000
G0Z12.700
X58.430Y58.430
Z0.250
G1Z-3.000
G0Z12.700
X55.890
Z0.250
G1Z-3.000
G0Z12.700
Y67.320
Z0.250
G1Z-3.000
G0Z12.700
X58.430
Z0.250
G1Z-3.000
G0Z12.700
Y77.480
Z0.250
G1Z-3.000
G0Z12.700
X55.890
Z0.250
G1Z-3.000
G0Z12.700
M02
