(/Users/shlokyeolekar/Documents/Redbud Labs/Heating Press Project/fixed_gcode.nc Post Processed G-code)
(Program has been seperated by tool changes)
(Move to safe Z to avoid workholding)
G90 
G21 
G53G0Z-5.000 
M6T102
M03S10000
G0X45.877Y45.877
(PREPOSITION BEFORE RAPID PLUNGE)
Z0.250
G1Z-0.250F203.2
X45.993Y45.772F508.0
X46.119Y45.679
X46.245Y45.603
X46.373Y45.541
X46.502Y45.492
X46.617Y45.459
X46.775Y45.428
X46.945Y45.413
X99.845
Z1.000
X104.020
Z-0.250
X155.005
X155.188Y45.430
X155.382Y45.472
X155.474Y45.501
X155.577Y45.541
X155.737Y45.621
X155.816Y45.669
X155.910Y45.735
X156.006Y45.814
X156.073Y45.877
X156.136Y45.944
X156.215Y46.040
X156.281Y46.134
X156.329Y46.213
X156.409Y46.373
X156.449Y46.476
X156.483Y46.586
X156.522Y46.775
X156.535Y46.903
X156.538Y47.000
Y75.879
Z1.000
Y80.054
Z-0.250
Y109.230
X156.535Y109.327
X156.522Y109.455
X156.483Y109.644
X156.449Y109.754
X156.409Y109.857
X156.329Y110.017
X156.281Y110.096
X156.215Y110.190
X156.136Y110.286
X156.073Y110.353
X156.006Y110.416
X155.910Y110.495
X155.816Y110.561
X155.737Y110.609
X155.577Y110.689
X155.474Y110.729
X155.364Y110.763
X155.175Y110.802
X155.047Y110.815
X154.950Y110.818
X104.020
Z1.000
X99.845
Z-0.250
X47.000
X46.903Y110.815
X46.775Y110.802
X46.586Y110.763
X46.476Y110.729
X46.373Y110.689
X46.213Y110.609
X46.134Y110.561
X46.040Y110.495
X45.944Y110.416
X45.877Y110.353
X45.752Y110.212
X45.642Y110.053
X45.552Y109.882
X45.485Y109.706
X45.436Y109.505
X45.418Y109.368
X45.413Y109.285
Y79.588
Z1.000
Y75.413
Z-0.250
Y46.945
X45.428Y46.775
X45.459Y46.617
X45.501Y46.476
X45.541Y46.373
X45.601Y46.249
X45.679Y46.119
X45.772Y45.993
X45.877Y45.877
Z-0.500
X45.993Y45.772
X46.119Y45.679
X46.245Y45.603
X46.373Y45.541
X46.502Y45.492
X46.617Y45.459
X46.775Y45.428
X46.945Y45.413
X99.845
Z1.000
X104.020
Z-0.500
X155.005
X155.188Y45.430
X155.382Y45.472
X155.474Y45.501
X155.577Y45.541
X155.737Y45.621
X155.816Y45.669
X155.910Y45.735
X156.006Y45.814
X156.073Y45.877
X156.136Y45.944
X156.215Y46.040
X156.281Y46.134
X156.329Y46.213
X156.409Y46.373
X156.449Y46.476
X156.483Y46.586
X156.522Y46.775
X156.535Y46.903
X156.538Y47.000
Y75.879
Z1.000
Y80.054
Z-0.500
Y109.230
X156.535Y109.327
X156.522Y109.455
X156.483Y109.644
X156.449Y109.754
X156.409Y109.857
X156.329Y110.017
X156.281Y110.096
X156.215Y110.190
X156.136Y110.286
X156.073Y110.353
X156.006Y110.416
X155.910Y110.495
X155.816Y110.561
X155.737Y110.609
X155.577Y110.689
X155.474Y110.729
X155.364Y110.763
X155.175Y110.802
X155.047Y110.815
X154.950Y110.818
X104.020
Z1.000
X99.845
Z-0.500
X47.000
X46.903Y110.815
X46.775Y110.802
X46.586Y110.763
X46.476Y110.729
X46.373Y110.689
X46.213Y110.609
X46.134Y110.561
X46.040Y110.495
X45.944Y110.416
X45.877Y110.353
X45.752Y110.212
X45.642Y110.053
X45.552Y109.882
X45.485Y109.706
X45.436Y109.505
X45.418Y109.368
X45.413Y109.285
Y79.588
Z1.000
Y75.413
Z-0.500
Y46.945
X45.428Y46.775
X45.459Y46.617
X45.501Y46.476
X45.541Y46.373
X45.601Y46.249
X45.679Y46.119
X45.772Y45.993
X45.877Y45.877
Z-0.750
X45.993Y45.772
X46.119Y45.679
X46.245Y45.603
X46.373Y45.541
X46.502Y45.492
X46.617Y45.459
X46.775Y45.428
X46.945Y45.413
X99.845
Z1.000
X104.020
Z-0.750
X155.005
X155.188Y45.430
X155.382Y45.472
X155.474Y45.501
X155.577Y45.541
X155.737Y45.621
X155.816Y45.669
X155.910Y45.735
X156.006Y45.814
X156.073Y45.877
X156.136Y45.944
X156.215Y46.040
X156.281Y46.134
X156.329Y46.213
X156.409Y46.373
X156.449Y46.476
X156.483Y46.586
X156.522Y46.775
X156.535Y46.903
X156.538Y47.000
Y75.879
Z1.000
Y80.054
Z-0.750
Y109.230
X156.535Y109.327
X156.522Y109.455
X156.483Y109.644
X156.449Y109.754
X156.409Y109.857
X156.329Y110.017
X156.281Y110.096
X156.215Y110.190
X156.136Y110.286
X156.073Y110.353
X156.006Y110.416
X155.910Y110.495
X155.816Y110.561
X155.737Y110.609
X155.577Y110.689
X155.474Y110.729
X155.364Y110.763
X155.175Y110.802
X155.047Y110.815
X154.950Y110.818
X104.020
Z1.000
X99.845
Z-0.750
X47.000
X46.903Y110.815
X46.775Y110.802
X46.586Y110.763
X46.476Y110.729
X46.373Y110.689
X46.213Y110.609
X46.134Y110.561
X46.040Y110.495
X45.944Y110.416
X45.877Y110.353
X45.752Y110.212
X45.642Y110.053
X45.552Y109.882
X45.485Y109.706
X45.436Y109.505
X45.418Y109.368
X45.413Y109.285
Y79.588
Z1.000
Y75.413
Z-0.750
Y46.945
X45.428Y46.775
X45.459Y46.617
X45.501Y46.476
X45.541Y46.373
X45.601Y46.249
X45.679Y46.119
X45.772Y45.993
X45.877Y45.877
Z-1.000
X45.993Y45.772
X46.119Y45.679
X46.245Y45.603
X46.373Y45.541
X46.502Y45.492
X46.617Y45.459
X46.775Y45.428
X46.945Y45.413
X99.845
Z1.000
X104.020
Z-1.000
X155.005
X155.188Y45.430
X155.382Y45.472
X155.474Y45.501
X155.577Y45.541
X155.737Y45.621
X155.816Y45.669
X155.910Y45.735
X156.006Y45.814
X156.073Y45.877
X156.136Y45.944
X156.215Y46.040
X156.281Y46.134
X156.329Y46.213
X156.409Y46.373
X156.449Y46.476
X156.483Y46.586
X156.522Y46.775
X156.535Y46.903
X156.538Y47.000
Y75.879
Z1.000
Y80.054
Z-1.000
Y109.230
X156.535Y109.327
X156.522Y109.455
X156.483Y109.644
X156.449Y109.754
X156.409Y109.857
X156.329Y110.017
X156.281Y110.096
X156.215Y110.190
X156.136Y110.286
X156.073Y110.353
X156.006Y110.416
X155.910Y110.495
X155.816Y110.561
X155.737Y110.609
X155.577Y110.689
X155.474Y110.729
X155.364Y110.763
X155.175Y110.802
X155.047Y110.815
X154.950Y110.818
X104.020
Z1.000
X99.845
Z-1.000
X47.000
X46.903Y110.815
X46.775Y110.802
X46.586Y110.763
X46.476Y110.729
X46.373Y110.689
X46.213Y110.609
X46.134Y110.561
X46.040Y110.495
X45.944Y110.416
X45.877Y110.353
X45.752Y110.212
X45.642Y110.053
X45.552Y109.882
X45.485Y109.706
X45.436Y109.505
X45.418Y109.368
X45.413Y109.285
Y79.588
Z1.000
Y75.413
Z-1.000
Y46.945
X45.428Y46.775
X45.459Y46.617
X45.501Y46.476
X45.541Y46.373
X45.601Y46.249
X45.679Y46.119
X45.772Y45.993
X45.877Y45.877
Z-1.250
X45.993Y45.772
X46.119Y45.679
X46.245Y45.603
X46.373Y45.541
X46.502Y45.492
X46.617Y45.459
X46.775Y45.428
X46.945Y45.413
X99.845
Z1.000
X104.020
Z-1.250
X155.005
X155.188Y45.430
X155.382Y45.472
X155.474Y45.501
X155.577Y45.541
X155.737Y45.621
X155.816Y45.669
X155.910Y45.735
X156.006Y45.814
X156.073Y45.877
X156.136Y45.944
X156.215Y46.040
X156.281Y46.134
X156.329Y46.213
X156.409Y46.373
X156.449Y46.476
X156.483Y46.586
X156.522Y46.775
X156.535Y46.903
X156.538Y47.000
Y75.879
Z1.000
Y80.054
Z-1.250
Y109.230
X156.535Y109.327
X156.522Y109.455
X156.483Y109.644
X156.449Y109.754
X156.409Y109.857
X156.329Y110.017
X156.281Y110.096
X156.215Y110.190
X156.136Y110.286
X156.073Y110.353
X156.006Y110.416
X155.910Y110.495
X155.816Y110.561
X155.737Y110.609
X155.577Y110.689
X155.474Y110.729
X155.364Y110.763
X155.175Y110.802
X155.047Y110.815
X154.950Y110.818
X104.020
Z1.000
X99.845
Z-1.250
X47.000
X46.903Y110.815
X46.775Y110.802
X46.586Y110.763
X46.476Y110.729
X46.373Y110.689
X46.213Y110.609
X46.134Y110.561
X46.040Y110.495
X45.944Y110.416
X45.877Y110.353
X45.752Y110.212
X45.642Y110.053
X45.552Y109.882
X45.485Y109.706
X45.436Y109.505
X45.418Y109.368
X45.413Y109.285
Y79.588
Z1.000
Y75.413
Z-1.250
Y46.945
X45.428Y46.775
X45.459Y46.617
X45.501Y46.476
X45.541Y46.373
X45.601Y46.249
X45.679Y46.119
X45.772Y45.993
X45.877Y45.877
Z-1.500
X45.993Y45.772
X46.119Y45.679
X46.245Y45.603
X46.373Y45.541
X46.502Y45.492
X46.617Y45.459
X46.775Y45.428
X46.945Y45.413
X99.845
Z1.000
X104.020
Z-1.500
X155.005
X155.188Y45.430
X155.382Y45.472
X155.474Y45.501
X155.577Y45.541
X155.737Y45.621
X155.816Y45.669
X155.910Y45.735
X156.006Y45.814
X156.073Y45.877
X156.136Y45.944
X156.215Y46.040
X156.281Y46.134
X156.329Y46.213
X156.409Y46.373
X156.449Y46.476
X156.483Y46.586
X156.522Y46.775
X156.535Y46.903
X156.538Y47.000
Y75.879
Z1.000
Y80.054
Z-1.500
Y109.230
X156.535Y109.327
X156.522Y109.455
X156.483Y109.644
X156.449Y109.754
X156.409Y109.857
X156.329Y110.017
X156.281Y110.096
X156.215Y110.190
X156.136Y110.286
X156.073Y110.353
X156.006Y110.416
X155.910Y110.495
X155.816Y110.561
X155.737Y110.609
X155.577Y110.689
X155.474Y110.729
X155.364Y110.763
X155.175Y110.802
X155.047Y110.815
X154.950Y110.818
X104.020
Z1.000
X99.845
Z-1.500
X47.000
X46.903Y110.815
X46.775Y110.802
X46.586Y110.763
X46.476Y110.729
X46.373Y110.689
X46.213Y110.609
X46.134Y110.561
X46.040Y110.495
X45.944Y110.416
X45.877Y110.353
X45.752Y110.212
X45.642Y110.053
X45.552Y109.882
X45.485Y109.706
X45.436Y109.505
X45.418Y109.368
X45.413Y109.285
Y79.588
Z1.000
Y75.413
Z-1.500
Y46.945
X45.428Y46.775
X45.459Y46.617
X45.501Y46.476
X45.541Y46.373
X45.601Y46.249
X45.679Y46.119
X45.772Y45.993
X45.877Y45.877
Z-1.750
X45.993Y45.772
X46.119Y45.679
X46.245Y45.603
X46.373Y45.541
X46.502Y45.492
X46.617Y45.459
X46.775Y45.428
X46.945Y45.413
X99.845
Z1.000
X104.020
Z-1.750
X155.005
X155.188Y45.430
X155.382Y45.472
X155.474Y45.501
X155.577Y45.541
X155.737Y45.621
X155.816Y45.669
X155.910Y45.735
X156.006Y45.814
X156.073Y45.877
X156.136Y45.944
X156.215Y46.040
X156.281Y46.134
X156.329Y46.213
X156.409Y46.373
X156.449Y46.476
X156.483Y46.586
X156.522Y46.775
X156.535Y46.903
X156.538Y47.000
Y75.879
Z1.000
Y80.054
Z-1.750
Y109.230
X156.535Y109.327
X156.522Y109.455
X156.483Y109.644
X156.449Y109.754
X156.409Y109.857
X156.329Y110.017
X156.281Y110.096
X156.215Y110.190
X156.136Y110.286
X156.073Y110.353
X156.006Y110.416
X155.910Y110.495
X155.816Y110.561
X155.737Y110.609
X155.577Y110.689
X155.474Y110.729
X155.364Y110.763
X155.175Y110.802
X155.047Y110.815
X154.950Y110.818
X104.020
Z1.000
X99.845
Z-1.750
X47.000
X46.903Y110.815
X46.775Y110.802
X46.586Y110.763
X46.476Y110.729
X46.373Y110.689
X46.213Y110.609
X46.134Y110.561
X46.040Y110.495
X45.944Y110.416
X45.877Y110.353
X45.752Y110.212
X45.642Y110.053
X45.552Y109.882
X45.485Y109.706
X45.436Y109.505
X45.418Y109.368
X45.413Y109.285
Y79.588
Z1.000
Y75.413
Z-1.750
Y46.945
X45.428Y46.775
X45.459Y46.617
X45.501Y46.476
X45.541Y46.373
X45.601Y46.249
X45.679Y46.119
X45.772Y45.993
X45.877Y45.877
Z-2.000
X45.993Y45.772
X46.119Y45.679
X46.245Y45.603
X46.373Y45.541
X46.502Y45.492
X46.617Y45.459
X46.775Y45.428
X46.945Y45.413
X99.845
Z1.000
X104.020
Z-2.000
X155.005
X155.188Y45.430
X155.382Y45.472
X155.474Y45.501
X155.577Y45.541
X155.737Y45.621
X155.816Y45.669
X155.910Y45.735
X156.006Y45.814
X156.073Y45.877
X156.136Y45.944
X156.215Y46.040
X156.281Y46.134
X156.329Y46.213
X156.409Y46.373
X156.449Y46.476
X156.483Y46.586
X156.522Y46.775
X156.535Y46.903
X156.538Y47.000
Y75.879
Z1.000
Y80.054
Z-2.000
Y109.230
X156.535Y109.327
X156.522Y109.455
X156.483Y109.644
X156.449Y109.754
X156.409Y109.857
X156.329Y110.017
X156.281Y110.096
X156.215Y110.190
X156.136Y110.286
X156.073Y110.353
X156.006Y110.416
X155.910Y110.495
X155.816Y110.561
X155.737Y110.609
X155.577Y110.689
X155.474Y110.729
X155.364Y110.763
X155.175Y110.802
X155.047Y110.815
X154.950Y110.818
X104.020
Z1.000
X99.845
Z-2.000
X47.000
X46.903Y110.815
X46.775Y110.802
X46.586Y110.763
X46.476Y110.729
X46.373Y110.689
X46.213Y110.609
X46.134Y110.561
X46.040Y110.495
X45.944Y110.416
X45.877Y110.353
X45.752Y110.212
X45.642Y110.053
X45.552Y109.882
X45.485Y109.706
X45.436Y109.505
X45.418Y109.368
X45.413Y109.285
Y79.588
Z1.000
Y75.413
Z-2.000
Y46.945
X45.428Y46.775
X45.459Y46.617
X45.501Y46.476
X45.541Y46.373
X45.601Y46.249
X45.679Y46.119
X45.772Y45.993
X45.877Y45.877
Z12.700
(Toolpath: Mounting Holes)
M03S10000
G0X151.016Y50.705
Z0.250
G1Z-1.000F100.0
X150.982Y50.776F2000.0
X150.978Y50.810
X150.981Y50.837
X150.996Y50.882
X151.016Y50.914
X151.035Y50.933
X151.092Y50.963
X151.156Y50.969
X151.212Y50.953
X151.244Y50.933
X151.263Y50.914
X151.283Y50.882
X151.295Y50.851
X151.299Y50.793
X151.283Y50.737
X151.263Y50.705
X151.244Y50.686
X151.187Y50.656
X151.124Y50.650
X151.068Y50.665
X151.035Y50.686
X151.016Y50.705
Z-2.000
X150.982Y50.776
X150.978Y50.810
X150.981Y50.837
X150.996Y50.882
X151.016Y50.914
X151.035Y50.933
X151.092Y50.963
X151.156Y50.969
X151.212Y50.953
X151.244Y50.933
X151.263Y50.914
X151.283Y50.882
X151.295Y50.851
X151.299Y50.793
X151.283Y50.737
X151.263Y50.705
X151.244Y50.686
X151.187Y50.656
X151.124Y50.650
X151.068Y50.665
X151.035Y50.686
X151.016Y50.705
Z12.700
G0X151.093Y58.389
Z0.250
G1Z-1.000F100.0
X151.083Y58.406F2000.0
X151.079Y58.436
X151.083Y58.452
X151.099Y58.476
X151.116Y58.486
X151.150Y58.489
X151.163Y58.486
X151.187Y58.468
X151.199Y58.441
Y58.419
X151.196Y58.406
X151.180Y58.383
X151.163Y58.373
X151.128Y58.370
X151.093Y58.389
Z-2.000
X151.083Y58.406
X151.079Y58.436
X151.083Y58.452
X151.099Y58.476
X151.116Y58.486
X151.150Y58.489
X151.163Y58.486
X151.187Y58.468
X151.199Y58.441
Y58.419
X151.196Y58.406
X151.180Y58.383
X151.163Y58.373
X151.128Y58.370
X151.093Y58.389
Z12.700
G0X151.096Y91.406
Z0.250
G1Z-1.000F100.0
X151.083Y91.426F2000.0
X151.079Y91.456
X151.083Y91.472
X151.099Y91.496
X151.116Y91.506
X151.150Y91.509
X151.180Y91.496
X151.199Y91.460
X151.196Y91.426
X151.186Y91.409
X151.171Y91.397
X151.147Y91.389
X151.122Y91.391
X151.096Y91.406
Z-2.000
X151.083Y91.426
X151.079Y91.456
X151.083Y91.472
X151.099Y91.496
X151.116Y91.506
X151.150Y91.509
X151.180Y91.496
X151.199Y91.460
X151.196Y91.426
X151.186Y91.409
X151.171Y91.397
X151.147Y91.389
X151.122Y91.391
X151.096Y91.406
Z12.700
G0X151.016Y105.315
Z0.250
G1Z-1.000F100.0
X150.982Y105.386F2000.0
X150.978Y105.420
X150.981Y105.447
X150.996Y105.492
X151.016Y105.524
X151.035Y105.543
X151.092Y105.573
X151.156Y105.579
X151.212Y105.563
X151.244Y105.543
X151.263Y105.524
X151.283Y105.492
X151.295Y105.461
X151.299Y105.403
X151.283Y105.347
X151.263Y105.315
X151.244Y105.296
X151.187Y105.266
X151.124Y105.260
X151.068Y105.275
X151.035Y105.296
X151.016Y105.315
Z-2.000
X150.982Y105.386
X150.978Y105.420
X150.981Y105.447
X150.996Y105.492
X151.016Y105.524
X151.035Y105.543
X151.092Y105.573
X151.156Y105.579
X151.212Y105.563
X151.244Y105.543
X151.263Y105.524
X151.283Y105.492
X151.295Y105.461
X151.299Y105.403
X151.283Y105.347
X151.263Y105.315
X151.244Y105.296
X151.187Y105.266
X151.124Y105.260
X151.068Y105.275
X151.035Y105.296
X151.016Y105.315
Z12.700
G0X110.456Y91.406
Z0.250
G1Z-1.000F100.0
X110.443Y91.426F2000.0
X110.439Y91.456
X110.443Y91.472
X110.459Y91.496
X110.476Y91.506
X110.510Y91.509
X110.543Y91.493
X110.556Y91.472
X110.559Y91.438
X110.543Y91.406
X110.517Y91.391
X110.492Y91.389
X110.456Y91.406
Z-2.000
X110.443Y91.426
X110.439Y91.456
X110.443Y91.472
X110.459Y91.496
X110.476Y91.506
X110.510Y91.509
X110.543Y91.493
X110.556Y91.472
X110.559Y91.438
X110.543Y91.406
X110.517Y91.391
X110.492Y91.389
X110.456Y91.406
Z12.700
G0X110.453Y58.389
Z0.250
G1Z-1.000F100.0
X110.443Y58.406F2000.0
X110.439Y58.436
X110.443Y58.452
X110.459Y58.476
X110.476Y58.486
X110.510Y58.489
X110.523Y58.486
X110.547Y58.468
X110.559Y58.441
Y58.419
X110.556Y58.406
X110.540Y58.383
X110.523Y58.373
X110.488Y58.370
X110.453Y58.389
Z-2.000
X110.443Y58.406
X110.439Y58.436
X110.443Y58.452
X110.459Y58.476
X110.476Y58.486
X110.510Y58.489
X110.523Y58.486
X110.547Y58.468
X110.559Y58.441
Y58.419
X110.556Y58.406
X110.540Y58.383
X110.523Y58.373
X110.488Y58.370
X110.453Y58.389
Z12.700
G0X50.686Y50.705
Z0.250
G1Z-1.000F100.0
X50.654Y50.768F2000.0
X50.649Y50.819
X50.657Y50.864
X50.673Y50.894
X50.703Y50.930
X50.742Y50.956
X50.762Y50.963
X50.826Y50.969
X50.877Y50.956
X50.916Y50.930
X50.936Y50.908
X50.962Y50.864
X50.969Y50.794
X50.953Y50.737
X50.933Y50.705
X50.914Y50.686
X50.857Y50.656
X50.802Y50.648
X50.734Y50.667
X50.686Y50.705
Z-2.000
X50.654Y50.768
X50.649Y50.819
X50.657Y50.864
X50.673Y50.894
X50.703Y50.930
X50.742Y50.956
X50.762Y50.963
X50.826Y50.969
X50.877Y50.956
X50.916Y50.930
X50.936Y50.908
X50.962Y50.864
X50.969Y50.794
X50.953Y50.737
X50.933Y50.705
X50.914Y50.686
X50.857Y50.656
X50.802Y50.648
X50.734Y50.667
X50.686Y50.705
Z12.700
G0Y105.315
Z0.250
G1Z-1.000F100.0
X50.652Y105.386F2000.0
X50.648Y105.420
X50.651Y105.447
X50.666Y105.492
X50.686Y105.524
X50.705Y105.543
X50.762Y105.573
X50.826Y105.579
X50.882Y105.563
X50.914Y105.543
X50.933Y105.524
X50.953Y105.492
X50.965Y105.461
X50.969Y105.403
X50.953Y105.347
X50.933Y105.315
X50.914Y105.296
X50.857Y105.266
X50.794Y105.260
X50.738Y105.275
X50.705Y105.296
X50.686Y105.315
Z-2.000
X50.652Y105.386
X50.648Y105.420
X50.651Y105.447
X50.666Y105.492
X50.686Y105.524
X50.705Y105.543
X50.762Y105.573
X50.826Y105.579
X50.882Y105.563
X50.914Y105.543
X50.933Y105.524
X50.953Y105.492
X50.965Y105.461
X50.969Y105.403
X50.953Y105.347
X50.933Y105.315
X50.914Y105.296
X50.857Y105.266
X50.794Y105.260
X50.738Y105.275
X50.705Y105.296
X50.686Y105.315
Z12.700
(Toolpath: Traces)
M05
(Move to safe Z to avoid workholding)
G53G0Z-5.000
(TOOL/MILL,0.03, 0.00, 10.00, 15.00)
M02